X: 26839
T: Mimi And The New Generation
R: polka
M: 2/4
K: Amixolydian
cA AB cd e2|ea e/f/e/d/ cd fg|cA AB cd ef/g/|ad e/f/e/d/ cA Ae/d/|
cA AB cd e2|ea e/f/e/d/ cd fg|cA AB cd e2|ea e/f/e/d/ cA A2||
af g/f/e fd e/f/e/d/|cA AB cd ef/g/|a2 g/f/e fd ef/g/|ad e/f/e/d/ cA A2|
af g/f/e fd e/f/e/d/|cA AB cd (3efg|a2 g/f/e fd ef/g/|ad e/f/e/d/ cA A2||

